templates/pdf/StuRa-Logo.svg

<?xml version="1.0" encoding="UTF-8" standalone="no"?>
<!-- Created with Inkscape (http://www.inkscape.org/) -->
<svg
   xmlns:dc="http://purl.org/dc/elements/1.1/"
   xmlns:cc="http://creativecommons.org/ns#"
   xmlns:rdf="http://www.w3.org/1999/02/22-rdf-syntax-ns#"
   xmlns:svg="http://www.w3.org/2000/svg"
   xmlns="http://www.w3.org/2000/svg"
   xmlns:sodipodi="http://sodipodi.sourceforge.net/DTD/sodipodi-0.dtd"
   xmlns:inkscape="http://www.inkscape.org/namespaces/inkscape"
   width="354.33069"
   height="230.31496"
   id="svg2"
   sodipodi:version="0.32"
   inkscape:version="0.46"
   sodipodi:docname="StuRa-Logo+.svg"
   inkscape:output_extension="org.inkscape.output.svg.inkscape"
   version="1.0">
  <sodipodi:namedview
     id="base"
     pagecolor="#ffffff"
     bordercolor="#666666"
     borderopacity="1.0"
     inkscape:pageopacity="0.0"
     inkscape:pageshadow="2"
     inkscape:zoom="0.32"
     inkscape:cx="273.52443"
     inkscape:cy="-307.37699"
     inkscape:document-units="px"
     inkscape:current-layer="layer1"
     showgrid="false"
     showguides="true"
     inkscape:guide-bbox="true"
     inkscape:window-width="1680"
     inkscape:window-height="1003"
     inkscape:window-x="-4"
     inkscape:window-y="-4"
     units="mm" />
  <defs
     id="defs4">
    <inkscape:perspective
       id="perspective10"
       inkscape:persp3d-origin="372.04724 : 350.78739 : 1"
       inkscape:vp_z="744.09448 : 526.18109 : 1"
       inkscape:vp_y="0 : 1000 : 0"
       inkscape:vp_x="0 : 526.18109 : 1"
       sodipodi:type="inkscape:persp3d" />
    <inkscape:perspective
       sodipodi:type="inkscape:persp3d"
       inkscape:vp_x="0 : 526.18109 : 1"
       inkscape:vp_y="0 : 1000 : 0"
       inkscape:vp_z="744.09448 : 526.18109 : 1"
       inkscape:persp3d-origin="372.04724 : 350.78739 : 1"
       id="perspective2390" />
  </defs>
  <metadata
     id="metadata7">
    <rdf:RDF>
      <cc:Work
         rdf:about="">
        <dc:format>image/svg+xml</dc:format>
        <dc:type
           rdf:resource="http://purl.org/dc/dcmitype/StillImage" />
      </cc:Work>
    </rdf:RDF>
  </metadata>
  <g
     id="layer1"
     inkscape:groupmode="layer"
     inkscape:label="Ebene 1">
    <g
       id="g3826"
       transform="matrix(0.2956566,0,0,0.2956566,-2.6092679,-185.98402)">
      <path
         d="M 318.50424,932.73432 C 291.72628,928.93723 261.49929,918.37985 274.1683,909.88276 C 284.63096,902.86546 318.2554,899.07777 339.01205,899.14057 C 354.71011,899.18807 375.37225,900.69955 390.37924,908.12494 C 397.83752,911.81526 403.20617,917.55303 400.92611,932.34369 C 479.65812,933.78215 403.66507,932.43318 484.91049,933.90619 C 489.36515,924.25445 489.98634,909.22265 486.08236,900.70306 C 479.7454,886.87403 460.17116,875.46226 444.87143,870.62495 C 406.86103,858.60721 355.54982,852.48165 310.69174,853.04682 C 279.81625,853.43752 243.3527,855.92524 213.81674,864.17963 C 193.18166,869.9465 165.74442,881.97318 152.09799,898.35932 C 144.86045,907.0499 140.11306,924.3709 144.87142,936.24994 C 152.9448,956.40479 181.61794,964.88559 200.92611,970.42963 C 230.48274,978.91635 271.65666,983.0618 301.70736,987.03119 C 330.24647,990.80092 391.71709,992.8339 372.41049,1011.4452 C 353.71672,1029.4658 324.39955,1032.1156 296.23861,1035.0781 C 275.51533,1037.2581 241.94827,1038.2961 226.31674,1028.4374 C 211.63647,1019.1787 211.72498,1008.9125 211.6683,997.77338 C 74.670968,1006.0331 205.33562,997.72129 70.847988,1006.1718 C 67.996048,1015.3857 68.441988,1023.7896 69.871418,1032.3437 C 73.114898,1051.7534 96.204298,1070.4357 112.84018,1074.9218 C 149.27302,1084.7464 193.05013,1085.399 219.4808,1086.0546 C 249.43072,1086.7922 290.90766,1081.1056 320.26205,1075.1171 C 353.17597,1068.4025 390.66471,1059.3339 417.9183,1045.2343 C 447.72279,1029.815 465.04609,1009.0239 464.20736,985.85932 C 463.53463,967.47464 437.1869,956.48745 422.41049,952.07026 C 390.97208,942.6722 349.86584,937.18137 318.50424,932.73432 z M 528.66049,924.82416 C 536.23795,904.35622 529.20503,921.44461 537.15658,902.07026 C 605.13625,885.90001 541.54874,900.85319 609.32455,885.46869 C 594.2338,919.13494 604.89603,895.98381 589.7933,928.63276 C 616.59954,929.19979 595.11738,928.64328 620.84799,929.41401 C 608.79649,957.7843 619.81462,932.05471 607.95736,959.88276 C 578.07215,960.38785 602.66459,960.24824 575.04721,960.46869 C 563.39931,991.28675 554.51651,1009.9599 551.90268,1016.9628 C 549.10532,1024.4575 568.83165,1018.7785 583.05502,1014.8632 C 574.87338,1045.2286 582.08303,1017.657 573.97299,1046.4062 C 550.06947,1053.2132 471.13148,1069.7038 480.90658,1033.4179 C 484.72015,1019.2617 496.26495,999.98338 512.93783,959.49213 C 491.39089,959.14292 510.61012,959.47343 486.91244,959.05268 C 499.99286,928.09952 489.43392,953.10634 501.60971,924.38471 C 525.7631,925.04114 507.90804,924.66844 528.66049,924.82416 z M 595.65268,1019.2578 C 596.41246,1012.8991 617.96909,964.05092 631.98081,930.87885 C 668.37035,931.73809 634.6121,930.90389 680.80893,931.95307 C 668.20139,962.99928 662.36961,977.11899 651.80502,1001.289 C 641.51403,1024.8331 685.40826,1015.546 692.72299,998.8476 C 702.8258,975.78448 707.72811,963.9828 720.94565,934.7851 C 757.64998,935.64746 723.10556,934.93721 759.42221,935.76166 C 742.87024,977.25923 732.68688,1004.7196 719.38315,1034.9804 C 683.24779,1036.3071 717.3725,1035.0501 681.59018,1036.3476 C 682.58141,1031.4175 681.85468,1034.8403 682.76206,1029.414 C 676.86039,1032.1084 667.7295,1038.6923 649.74359,1042.5395 C 627.0814,1047.387 592.36102,1047.0011 595.65268,1019.2578 z M 790.52573,903.14447 C 856.17725,911.14843 830.43097,907.51724 859.2269,911.64057 C 866.95133,912.74664 873.70031,915.84391 877.19565,921.60151 C 881.5719,928.81016 879.78598,933.67596 879.05112,939.17963 C 878.30334,944.7801 875.0265,952.32344 871.62925,956.85541 C 868.28994,961.31009 863.43884,965.72763 858.54331,968.37885 C 854.46678,970.58654 848.16966,972.465 842.13706,973.55463 C 848.31608,979.98517 852.17941,992.58839 856.9808,1018.4765 C 826.98707,1020.1579 855.63825,1018.5423 825.04721,1020.332 C 819.35563,1006.6706 814.91768,978.67686 805.02768,978.14448 C 800.76461,977.91499 802.47684,977.87564 793.11362,977.8515 C 774.28905,1023.9532 792.10444,979.75303 773.2894,1026.0937 C 740.08863,1028.6294 771.6704,1026.3038 737.93783,1028.9257 C 764.41931,965.50853 749.71863,1000.9813 790.52573,903.14447 z M 812.35723,931.54224 C 840.98605,933.12853 829.36819,932.35645 842.6089,933.28611 C 845.98755,933.52333 848.49199,933.63343 849.85863,935.59666 C 851.66934,938.19782 850.67955,942.14192 850.17947,943.86184 C 849.65807,945.6551 848.22914,947.19155 846.74769,949.13095 C 845.51032,950.75081 842.9485,952.6748 840.65063,953.79729 C 838.62277,954.78788 806.24416,954.1291 803.61351,954.47799 C 811.80453,932.89579 804.27617,951.72733 812.35723,931.54224 z M 874.94955,964.76558 C 893.12357,967.78082 875.71077,964.96965 894.96908,968.13471 C 897.13852,965.58813 900.30608,962.01024 903.56284,960.37103 C 906.32658,958.97996 910.48933,959.3121 912.44955,961.24995 C 913.99356,962.77634 914.58493,966.4788 908.05502,968.18354 C 894.92999,971.61003 885.93638,971.63647 875.43783,978.33978 C 868.3557,982.86172 861.67623,989.02295 859.22689,998.26166 C 858.3378,1001.6152 858.23781,1009.1409 859.61753,1012.3242 C 862.36134,1018.6547 871.11195,1019.657 876.70737,1018.8671 C 881.3521,1018.2114 885.92855,1016.6415 890.28159,1014.7656 C 892.81121,1013.6754 895.37716,1011.5989 897.84994,1010.957 C 897.78565,1014.4936 897.93861,1011.8387 897.80111,1014.9609 C 916.96915,1014.0553 899.32382,1014.9322 918.74839,1013.9355 C 918.97036,1003.8625 918.47583,1003.1972 919.77378,999.62885 C 924.82805,985.73369 929.88417,976.97199 933.73862,964.96088 C 935.46372,959.58519 936.65925,951.22194 930.51596,946.4062 C 926.22069,943.03911 920.34653,941.96964 913.03549,941.91401 C 908.12878,941.87616 902.71718,941.94774 897.01987,944.45307 C 889.32115,947.83849 881.12223,954.66133 874.94955,964.76558 z M 905.83335,985.32221 C 901.18868,985.79516 890.05636,988.93849 886.42417,992.10932 C 879.88893,997.81444 885.14821,1005.4692 894.09018,1000.4101 C 898.89252,997.69308 906.11,991.17039 905.83335,985.32221 z"
         style="fill:#194b50;fill-opacity:1;fill-rule:evenodd;stroke:none;stroke-width:0.5;stroke-linecap:butt;stroke-linejoin:miter;stroke-miterlimit:4;stroke-dasharray:none;stroke-opacity:1"
         id="path3231" />
      <path
         sodipodi:nodetypes="ccccc"
         id="path3250"
         d="M 851.04758,794.47635 C 844.93884,806.67495 849.69892,796.64748 843.42226,809.71549 C 863.04177,796.18094 885.7663,780.63169 902.06619,769.32128 C 905.04356,757.40759 902.6301,767.28799 905.83265,754.08502 C 888.48147,763.9694 867.6722,780.04494 851.04758,794.47635 z"
         style="fill:#277f74;fill-opacity:1;fill-rule:evenodd;stroke:none;stroke-width:0.5;stroke-linecap:butt;stroke-linejoin:miter;stroke-miterlimit:4;stroke-dasharray:none;stroke-opacity:1" />
      <path
         d="M 742.13909,1191.619 C 1037.5502,966.76412 1177.4845,613.32447 911.42416,762.27533 C 915.48838,750.09142 911.8892,761.21297 916.3558,747.48041 C 1096.4923,631.13855 1156.5254,669.30836 1146.2483,766.5679 C 1128.9843,930.41395 877.29425,1215.6007 693.01597,1306.3671 C 741.25843,1193.8154 694.53024,1302.8947 742.13909,1191.619 z M 808.33907,829.0435 C 821.51714,816.97028 825.29359,814.35968 842.72765,801.56025 C 837.03726,813.54235 842.1715,802.81871 836.65096,814.26607 C 827.02758,822.82977 817.07741,830.10111 800.46697,843.68282 C 807.6921,830.17479 801.03479,842.50521 808.33907,829.0435 z M 506.59799,1146.2784 C 496.96373,1153.5909 505.69212,1146.9859 495.91049,1154.1846 C 493.18356,1157.4768 490.62391,1160.5446 488.00424,1163.6846 L 504.00424,1150.3096 C 504.86885,1148.9682 505.74355,1147.629 506.59799,1146.2784 z M 501.06674,1154.8409 L 478.53549,1175.0284 C 472.73151,1181.9336 467.36419,1188.23 462.12924,1194.4034 L 496.56674,1161.6221 C 498.07715,1159.3774 499.57292,1157.1153 501.06674,1154.8409 z M 494.12924,1165.2159 L 453.87924,1204.1846 C 451.99253,1206.4075 450.2726,1208.462 448.47299,1210.5909 L 488.47299,1173.4659 C 490.36635,1170.7459 492.24024,1167.9925 494.12924,1165.2159 z M 485.47299,1177.7159 L 443.12924,1216.9034 C 439.85729,1220.7904 436.72628,1224.5236 433.72299,1228.1221 L 482.00424,1182.6534 C 483.15342,1181.0224 484.31693,1179.3643 485.47299,1177.7159 z M 477.72299,1188.7159 L 429.62924,1232.9971 C 424.01316,1239.7873 418.94418,1246.0515 414.53549,1251.7784 L 471.28549,1197.8409 C 473.3794,1194.8755 475.5647,1191.7658 477.72299,1188.7159 z M 464.47299,1207.5909 L 411.53549,1255.7471 C 409.39875,1258.5962 407.37228,1261.3573 405.53549,1263.9971 L 457.16049,1218.2471 C 459.46801,1214.7841 461.95281,1211.2214 464.47299,1207.5909 z M 453.44174,1223.9659 L 403.34799,1267.1846 C 402.4688,1268.4983 401.61749,1269.8238 400.81674,1271.0909 C 399.5472,1273.0998 398.3868,1275.0045 397.28549,1276.8721 L 447.31674,1233.8721 C 449.19278,1230.6713 451.25584,1227.3629 453.44174,1223.9659 z M 444.66049,1238.5596 L 395.75424,1279.5284 C 395.7475,1279.5404 395.72972,1279.5476 395.72299,1279.5596 C 394.2193,1282.2475 392.91982,1284.8204 391.84799,1287.3409 L 439.44174,1249.0909 C 440.88542,1245.7363 442.64853,1242.225 444.66049,1238.5596 z M 437.91049,1252.9346 L 390.81674,1289.9034 C 389.44117,1293.6633 388.62863,1297.3585 388.44174,1301.1846 L 434.91049,1265.9971 C 435.10134,1262.0317 436.15959,1257.6602 437.91049,1252.9346 z M 434.91049,1268.3409 L 388.41049,1303.5909 C 388.41355,1303.7372 388.40558,1303.8815 388.41049,1304.0284 C 388.53211,1307.6656 389.24992,1311.1653 390.47299,1314.5284 L 437.84799,1278.6534 C 436.92761,1276.8854 436.16582,1274.971 435.59799,1272.9034 C 435.2007,1271.4568 434.97973,1269.9335 434.91049,1268.3409 z M 438.75424,1280.2784 L 391.19174,1316.3721 C 392.9753,1320.5478 395.59676,1324.4651 398.91049,1328.1534 L 447.66049,1289.1534 C 443.96349,1286.7969 440.95718,1283.8706 438.75424,1280.2784 z M 451.41049,1291.2471 L 401.25424,1330.6221 C 406.1746,1335.4647 412.34133,1339.8346 419.53549,1343.6534 L 474.72299,1296.7784 C 465.53409,1296.0198 457.68458,1294.2653 451.41049,1291.2471 z M 711.81674,1214.9659 C 657.13525,1246.8191 607.06954,1277.8537 561.09799,1288.4034 L 504.31674,1361.5909 C 557.69899,1361.2819 616.85923,1342.5214 656.50424,1324.9346 C 711.70771,1214.4044 657.52433,1324.1739 711.81674,1214.9659 z"
         style="fill:#194b50;fill-opacity:1;fill-rule:evenodd;stroke:none;stroke-width:0.5;stroke-linecap:butt;stroke-linejoin:miter;stroke-miterlimit:4;stroke-dasharray:none;stroke-opacity:1"
         id="path3246" />
      <path
         id="path3252"
         d="M 553.31674,1289.9971 C 552.64285,1290.118 551.95759,1290.2608 551.28549,1290.3721 C 523.94942,1294.8998 499.79637,1297.8209 480.62924,1297.1221 L 426.19174,1346.9346 C 444.59509,1355.2023 468.20306,1360.2975 493.53549,1361.4034 L 493.56674,1361.4034 L 553.31674,1289.9971 z"
         style="fill:#277f74;fill-opacity:1;fill-rule:evenodd;stroke:none;stroke-width:0.5;stroke-linecap:butt;stroke-linejoin:miter;stroke-miterlimit:4;stroke-dasharray:none;stroke-opacity:1" />
    </g>
  </g>
</svg>

<?xml version="1.0" encoding="UTF-8"?>
<svg version="1.0" viewBox="0 0 354.33 230.31" xmlns="http://www.w3.org/2000/svg" xmlns:cc="http://creativecommons.org/ns#" xmlns:dc="http://purl.org/dc/elements/1.1/" xmlns:rdf="http://www.w3.org/1999/02/22-rdf-syntax-ns#">
  <metadata>
    <rdf:RDF>
      <cc:Work rdf:about="">
        <dc:format>image/svg+xml</dc:format>
        <dc:type rdf:resource="http://purl.org/dc/dcmitype/StillImage"/>
      </cc:Work>
    </rdf:RDF>
  </metadata>
  <g transform="matrix(.29566 0 0 .29566 -2.6093 -185.98)" fill-rule="evenodd">
    <path d="m318.5 932.73c-26.778-3.7971-57.005-14.354-44.336-22.852 10.463-7.0173 44.087-10.805 64.844-10.742 15.698 0.0475 36.36 1.559 51.367 8.9844 7.4583 3.6903 12.827 9.4281 10.547 24.219 78.732 1.4385 2.739 0.08949 83.984 1.5625 4.4547-9.6517 5.0758-24.684 1.1719-33.203-6.337-13.829-25.911-25.241-41.211-30.078-38.01-12.018-89.322-18.143-134.18-17.578-30.875 0.3907-67.339 2.8784-96.875 11.133-20.635 5.7669-48.072 17.794-61.719 34.18-7.2375 8.6906-11.985 26.012-7.2266 37.891 8.0734 20.155 36.747 28.636 56.055 34.18 29.557 8.4867 70.731 12.632 100.78 16.602 28.539 3.7697 90.01 5.8027 70.703 24.414-18.694 18.021-48.011 20.67-76.172 23.633-20.723 2.18-54.29 3.218-69.922-6.6407-14.68-9.2587-14.592-19.525-14.648-30.664-137 8.2597-6.3327-0.05209-140.82 8.3984-2.8519 9.2139-2.406 17.618-0.97657 26.172 3.2435 19.41 26.333 38.092 42.969 42.578 36.433 9.8246 80.21 10.477 106.64 11.133 29.95 0.7376 71.427-4.949 100.78-10.938 32.914-6.7146 70.403-15.783 97.656-29.883 29.804-15.419 47.128-36.21 46.289-59.375-0.67273-18.385-27.02-29.372-41.797-33.789-31.438-9.3981-72.545-14.889-103.91-19.336zm210.16-7.9102c7.5775-20.468 0.54454-3.3796 8.4961-22.754 67.98-16.17 4.3922-1.2171 72.168-16.602-15.091 33.666-4.4285 10.515-19.531 43.164 26.806 0.56703 5.3241 0.01052 31.055 0.78125-12.052 28.37-1.0334 2.6407-12.891 30.469-29.885 0.50509-5.2928 0.36548-32.91 0.58593-11.648 30.818-20.531 49.491-23.145 56.494-2.7974 7.4947 16.929 1.8157 31.152-2.0996-8.1816 30.365-0.97199 2.7938-9.082 31.543-23.904 6.807-102.84 23.298-93.066-12.988 3.8136-14.156 15.358-33.435 32.031-73.926-21.547-0.34921-2.3277-0.0187-26.025-0.43945 13.08-30.953 2.5215-5.9463 14.697-34.668 24.153 0.65643 6.2983 0.28373 27.051 0.43945zm66.992 94.434c0.75978-6.3587 22.316-55.207 36.328-88.379 36.39 0.85924 2.6313 0.02504 48.828 1.0742-12.608 31.046-18.439 45.166-29.004 69.336-10.291 23.544 33.603 14.257 40.918-2.4414 10.103-23.063 15.005-34.865 28.223-64.062 36.704 0.86236 2.1599 0.15211 38.477 0.97656-16.552 41.498-26.735 68.958-40.039 99.219-36.135 1.3267-2.0106 0.0697-37.793 1.3672 0.99123-4.9301 0.2645-1.5073 1.1719-6.9336-5.9017 2.6944-15.033 9.2783-33.018 13.126-22.662 4.8475-57.383 4.4616-54.091-23.282zm194.87-116.11c65.652 8.004 39.905 4.3728 68.701 8.4961 7.7244 1.1061 14.473 4.2033 17.969 9.9609 4.3762 7.2086 2.5903 12.074 1.8555 17.578-0.74778 5.6005-4.0246 13.144-7.4219 17.676-3.3393 4.4547-8.1904 8.8722-13.086 11.523-4.0765 2.2077-10.374 4.0862-16.406 5.1758 6.179 6.4305 10.042 19.034 14.844 44.922-29.994 1.6814-1.3426 0.0658-31.934 1.8555-5.6916-13.661-10.13-41.655-20.02-42.188-4.2631-0.22949-2.5508-0.26884-11.914-0.29298-18.825 46.102-1.0092 1.9015-19.824 48.242-33.201 2.5357-1.619 0.2101-35.352 2.832 26.481-63.417 11.781-27.944 52.588-125.78zm21.832 28.398c28.629 1.5863 17.011 0.81421 30.252 1.7439 3.3786 0.23722 5.8831 0.34732 7.2497 2.3106 1.8107 2.6012 0.82092 6.5453 0.32084 8.2652-0.5214 1.7933-1.9503 3.3297-3.4318 5.2691-1.2374 1.6199-3.7992 3.5438-6.0971 4.6663-2.0279 0.99059-34.406 0.33181-37.037 0.6807 8.191-21.582 0.66266-2.7507 8.7437-22.936zm62.592 33.223c18.174 3.0152 0.76122 0.20407 20.02 3.3691 2.1694-2.5466 5.337-6.1245 8.5938-7.7637 2.7637-1.3911 6.9265-1.0589 8.8867 0.87892 1.544 1.5264 2.1354 5.2288-4.3945 6.9336-13.125 3.4265-22.119 3.4529-32.617 10.156-7.0821 4.5219-13.762 10.683-16.211 19.922-0.88909 3.3535-0.98908 10.879 0.39064 14.063 2.7438 6.3305 11.494 7.3328 17.09 6.5429 4.6447-0.6557 9.2212-2.2256 13.574-4.1015 2.5296-1.0902 5.0956-3.1667 7.5684-3.8086-0.06429 3.5366 0.08867 0.8817-0.04883 4.0039 19.168-0.9056 1.5227-0.0287 20.947-1.0254 0.22197-10.073-0.27256-10.738 1.0254-14.307 5.0543-13.895 10.11-22.657 13.965-34.668 1.7251-5.3757 2.9206-13.739-3.2227-18.555-4.2953-3.3671-10.169-4.4366-17.48-4.4922-4.9067-0.03785-10.318 0.03373-16.016 2.5391-7.6987 3.3854-15.898 10.208-22.07 20.313zm30.884 20.557c-4.6447 0.47295-15.777 3.6163-19.409 6.7871-6.5352 5.7051-1.276 13.36 7.666 8.3008 4.8023-2.717 12.02-9.2397 11.743-15.088z" fill="#194b50"/>
    <path d="m851.05 794.48c-6.1087 12.199-1.3487 2.1711-7.6253 15.239 19.62-13.535 42.344-29.084 58.644-40.394 2.9774-11.914 0.56391-2.0333 3.7665-15.236-17.351 9.8844-38.16 25.96-54.785 40.391z" fill="#277f74"/>
    <path d="m742.14 1191.6c295.41-224.85 435.35-578.29 169.29-429.34 4.0642-12.184 0.46504-1.0624 4.9316-14.795 180.14-116.34 240.17-78.172 229.89 19.087-17.264 163.85-268.95 449.03-453.23 539.8 48.242-112.55 1.5143-3.4724 49.123-114.75zm66.2-362.58c13.178-12.073 16.955-14.684 34.389-27.483-5.6904 11.982-0.55615 1.2585-6.0767 12.706-9.6234 8.5637-19.574 15.835-36.184 29.417 7.2251-13.508 0.56782-1.1776 7.8721-14.639zm-301.74 317.23c-9.6343 7.3125-0.90587 0.7075-10.688 7.9062-2.7269 3.2922-5.2866 6.36-7.9062 9.5l16-13.375c0.86461-1.3414 1.7393-2.6806 2.5938-4.0312zm-5.5312 8.5625-22.531 20.188c-5.804 6.9052-11.171 13.202-16.406 19.375l34.438-32.781c1.5104-2.2447 3.0062-4.5068 4.5-6.7812zm-6.9375 10.375-40.25 38.969c-1.8867 2.2229-3.6066 4.2774-5.4062 6.4063l40-37.125c1.8934-2.72 3.7672-5.4734 5.6562-8.25zm-8.6562 12.5-42.344 39.188c-3.272 3.887-6.403 7.6202-9.4062 11.219l48.281-45.469c1.1492-1.631 2.3127-3.2891 3.4688-4.9375zm-7.75 11-48.094 44.281c-5.6161 6.7902-10.685 13.054-15.094 18.781l56.75-53.938c2.0939-2.9654 4.2792-6.0751 6.4375-9.125zm-13.25 18.875-52.938 48.156c-2.1367 2.8491-4.1632 5.6102-6 8.25l51.625-45.75c2.3075-3.463 4.7923-7.0257 7.3125-10.656zm-11.031 16.375-50.094 43.219c-0.87919 1.3137-1.7305 2.6392-2.5312 3.9063-1.2695 2.0089-2.4299 3.9136-3.5312 5.7812l50.031-43c1.876-3.2008 3.9391-6.5092 6.125-9.9062zm-8.7812 14.594-48.906 40.969c-0.00674 0.012-0.02452 0.0192-0.03125 0.0312-1.5037 2.6879-2.8032 5.2608-3.875 7.7813l47.594-38.25c1.4437-3.3546 3.2068-6.8659 5.2188-10.531zm-6.75 14.375-47.094 36.969c-1.3756 3.7599-2.1881 7.4551-2.375 11.281l46.469-35.188c0.19085-3.9654 1.2491-8.3369 3-13.062zm-3 15.406-46.5 35.25c0.00306 0.1463-0.00491 0.2906 0 0.4375 0.12162 3.6372 0.83943 7.1369 2.0625 10.5l47.375-35.875c-0.92038-1.768-1.6822-3.6824-2.25-5.75-0.39729-1.4466-0.61826-2.9699-0.6875-4.5625zm3.8438 11.938-47.562 36.094c1.7836 4.1757 4.405 8.093 7.7188 11.781l48.75-39c-3.697-2.3565-6.7033-5.2828-8.9062-8.875zm12.656 10.969-50.156 39.375c4.9204 4.8426 11.087 9.2125 18.281 13.031l55.188-46.875c-9.1889-0.7586-17.038-2.5131-23.312-5.5313zm260.41-76.281c-54.681 31.853-104.75 62.888-150.72 73.438l-56.781 73.188c53.382-0.309 112.54-19.07 152.19-36.656 55.203-110.53 1.0201-0.7607 55.312-109.97z" fill="#194b50"/>
    <path d="m553.32 1290c-0.67389 0.1209-1.3592 0.2637-2.0312 0.375-27.336 4.5277-51.489 7.4488-70.656 6.75l-54.438 49.812c18.403 8.2677 42.011 13.363 67.344 14.469h0.03125l59.75-71.406z" fill="#277f74"/>
  </g>
</svg>
